src/pos-icons/eraser-variant.svg

<svg height="24" viewBox="0 0 24 24" width="24" xmlns="http://www.w3.org/2000/svg"><path d="m15.14 3c-.51 0-1.02.2-1.41.59l-11.14 11.14c-.78.77-.78 2.04 0 2.83l2.44 2.44h7.66l8.72-8.73c.79-.77.79-2.04 0-2.83l-4.85-4.85c-.39-.39-.91-.59-1.42-.59m1.86 15-2 2h7v-2"/></svg>

<?xml version="1.0" encoding="UTF-8"?><!DOCTYPE svg PUBLIC "-//W3C//DTD SVG 1.1//EN" "http://www.w3.org/Graphics/SVG/1.1/DTD/svg11.dtd"><svg xmlns="http://www.w3.org/2000/svg" xmlns:xlink="http://www.w3.org/1999/xlink" version="1.1" id="mdi-eraser-variant" width="24" height="24" viewBox="0 0 24 24"><path d="M15.14,3C14.63,3 14.12,3.2 13.73,3.59L2.59,14.73C1.81,15.5 1.81,16.77 2.59,17.56L5.03,20H12.69L21.41,11.27C22.2,10.5 22.2,9.23 21.41,8.44L16.56,3.59C16.17,3.2 15.65,3 15.14,3M17,18L15,20H22V18" /></svg>
